**kern	**silbe
*ICvox	*
*D:	*
*M4/4	*
*clefG2	*
r;	.
=1	=1
1r	.
=2	=2
1r	.
=3	=3
1r	.
=4	=4
1r	.
=5	=5
1r	.
=6	=6
*C:	*
4r	.
16f	May-
16f	-be
16f	I'm
16d	a-
8f	-mazed
16f	at
16f	the
8g	way
8g	you
=7	=7
8g	love
16g	me
16[e	all
16e]	_
16e	the
8[d	time
4d]	_
4r	.
=8	=8
4r	.
16f	May-
16f	-be
16f	I'm
16d	a-
8f	-fraid
16f	of
16f	the
16e-	way
8d	I
16[d	love
=9	=9
16d]	_
8.c	you
4r	.
2r	.
=10	=10
4r	.
16f	Maybe
16f	I'm
16f	a-
16d	-ma-
8.f	-zed
16d	the
8f	way
8a	you
=11	=11
8a	pulled
16g	me
16[g	out
16g]	_
16e	of
8[g	time
4g]	_
8r	.
8d	And
=12	=12
8a	hung
16g	me
16[g	on
16g]	_
16e	a
8[g	line
4g]	_
4r	.
=13	=13
16f	May-
16f	-be
16f	I'm
16d	a-
8f	-mazed
16f	at
16f	the
16e-	way
8e-	I
16[d	real-
8d]	_
16e-	-ly
16[d	need
=14	=14
16d]	_
8.c	you
4r	.
2r	.
=15	=15
*D:	*
4r	.
16a	May-
16a	-be
16a	I'm
16f#	a
4a	man
16a	may-
16a	-be
16a	I'm
16a	a
=16	=16
8b	lone-
16a	-ly
16[b	man
16b]	_
16a	Who's
16b	in
16a	the
16b	mid-
16b	-dle
8a	of
8f	some-
8e	-thing
=17	=17
8d	_
8r	.
16B	That
16d	he
16d	does-
16B	-n't
8f	real-
16e	-ly
16[d	un-
16d]	_
16B	-der-
8f	-stand
=18	=18
8f#	_
8r	.
4r	.
2r	.
=19	=19
4r	.
16a	May-
16a	-be
16a	I'm
16f#	a
4a	man
16a	may-
16a	-be
16a	you're
16a	the
=20	=20
8b	on-
16a	-ly
16[b	wo-
16b]	_
16a	-man
16b	Who
16a	could
16ff	e-
8ee	-ver
16[ee	help
8ee]	_
8dd	me
=21	=21
4r	.
16B	Ba-
16d	-by
16d	won't
16B	you
8f	help
16e	me
16[d	un-
8d]	_
16B	-der-
16d	-stand
=22	=22
4r	.
8r	.
8[dd	Oooh
12dd]	_
12cc	_
12a	_
12g	_
12f	_
12g	_
=23	=23
8a	_
8f#	_
8d	_
16A	_
16G	_
8r	.
8r	.
4r	.
=24	=24
*C:	*
1r	.
=25	=25
1r	.
=26	=26
1r	.
=27	=27
1r	.
=28	=28
1r	.
=29	=29
1r	.
=30	=30
1r	.
=31	=31
1r	.
=32	=32
1r	.
=33	=33
*D:	*
4r	.
16a	May-
16a	-be
16a	I'm
16f#	a
4a	man
16a	may-
16a	-be
16a	I'm
16a	a
=34	=34
8b	lone-
16a	-ly
16[b	man
16b]	_
16a	Who's
16b	in
16a	the
16b	mid-
16b	-dle
8a	of
8f	some-
8e	-thing
=35	=35
8d	_
8r	.
16B	That
16d	he
16d	does-
16B	-n't
8f	real-
16e	-ly
16[d	un-
16d]	_
16B	-der-
8f	-stand
=36	=36
8f#	_
8r	.
4r	.
2r	.
=37	=37
4r	.
16a	May-
16a	-be
16a	I'm
16f#	a
4a	man
16a	may-
16a	-be
16a	you're
16a	the
=38	=38
8b	on-
16a	-ly
16[b	wo-
16b]	_
16a	-man
16b	Who
16a	could
16ff	e-
8ee	-ver
16[ee	help
8ee]	_
8dd	me
=39	=39
4r	.
16B	Ba-
16d	-by
16d	won't
16B	you
8f	help
16e	me
16[d	un-
8d]	_
16e	-der-
16d	-stand
=40	=40
4r	.
8r	.
8[dd	Oooh
12dd]	_
12cc	_
12a	_
12g	_
12f	_
12g	_
=41	=41
8a	_
8f#	_
8d	_
16A	_
16G	_
8r	.
8r	.
4r	.
=42	=42
*C:	*
4r	.
16f	May-
16f	-be
16f	I'm
16d	a-
8.f	-mazed
16f	the
8g	way
8g	you're
=43	=43
8g	with
16g	me
16[e	all
16e]	_
16e	the
8[d	time
4d]	_
4r	.
=44	=44
4r	.
16f	May-
16f	-be
16f	I'm
16d	a-
8f	-fraid
16f	of
16f	the
16e-	way
8d	I
16[d	leave
=45	=45
16d]	_
8.c	you
4r	.
2r	.
=46	=46
4r	.
16f	May-
16f	-be
16f	I'm
16d	a-
8.f	-mazed
16d	the
8f	way
8a	you
=47	=47
8a	help
16g	me
16[g	sing
16g]	_
16e	my
8[g	song
4g]	_
4r	.
=48	=48
8a	right
16g	me
16[g	when
16g]	_
16e	I'm
8[g	wrong
4g]	_
4r	.
=49	=49
16f	May-
16f	-be
16f	I'm
16d	a-
8f	-mazed
16f	at
16f	the
16e-	way
8e-	I
16[d	real-
8d]	_
16e-	-ly
16[d	need
=50	=50
16d]	_
8.c	you
4r	.
2r	.
=51	=51
*D:	*
4r	.
4a	Oh
4r	.
4a	Oh
=52	=52
4r	.
8d	Oh
8[a	_
8a]	_
8f	oh
8e	oh
8d	_
=53	=53
16e	_
8.d	_
4r	.
4r	.
16B	yeah
8d	_
16[f#	_
=54	=54
4f#]	_
4r	.
2r	.
=55	=55
4r	.
4a	oh
4r	.
4a	oh
=56	=56
4r	.
4b	Oh
12g	oh
12f#	oh
12e	oh
8d	oh
8e	_
=57	=57
8f#	_
8g	_
8b	_
8r	.
8r	.
8[e	yeah
8e]	_
16d	_
16e	_
=58	=58
8d	_
4.[dd	_
12dd]	_
12cc	Oooh
12a	_
12g	_
12f	_
12g	_
=59	=59
8a	_
8f#	_
8d	_
8r	.
2r	.
=60	=60
1r	.
r;	.
=61	=61
*C:	*
1r	.
=62	=62
1r	.
=63	=63
1r	.
=64	=64
1r	.
=65	=65
1r	.
=66	=66
1r	.
=67	=67
1r	.
=68	=68
1r	.
=69	=69
1r	.
=70	=70
*D:	*
1r	.
=71	=71
1r	.
=72	=72
1r	.
=73	=73
1r	.
=74	=74
1r	.
=75	=75
1r	.
=76	=76
1r	.
=77	=77
1r	.
=78	=78
1r	.
=79	=79
1r	.
r;	.
r;	.
*-	*-
!!!ENC: Nathaniel Condit-Schultz